SVG/tags.svg

<?xml version="1.0" encoding="utf-8"?>
<!-- Generated by IcoMoon.io -->
<!DOCTYPE svg PUBLIC "-//W3C//DTD SVG 1.1//EN" "http://www.w3.org/Graphics/SVG/1.1/DTD/svg11.dtd">
<svg version="1.1" xmlns="http://www.w3.org/2000/svg" xmlns:xlink="http://www.w3.org/1999/xlink" width="15" height="14" viewBox="0 0 15 14">
<path fill="#444444" d="M3.5 3.5q0-0.414-0.293-0.707t-0.707-0.293-0.707 0.293-0.293 0.707 0.293 0.707 0.707 0.293 0.707-0.293 0.293-0.707zM11.836 8q0 0.414-0.289 0.703l-3.836 3.844q-0.305 0.289-0.711 0.289-0.414 0-0.703-0.289l-5.586-5.594q-0.297-0.289-0.504-0.789t-0.207-0.914v-3.25q0-0.406 0.297-0.703t0.703-0.297h3.25q0.414 0 0.914 0.207t0.797 0.504l5.586 5.578q0.289 0.305 0.289 0.711zM14.836 8q0 0.414-0.289 0.703l-3.836 3.844q-0.305 0.289-0.711 0.289-0.281 0-0.461-0.109t-0.414-0.352l3.672-3.672q0.289-0.289 0.289-0.703 0-0.406-0.289-0.711l-5.586-5.578q-0.297-0.297-0.797-0.504t-0.914-0.207h1.75q0.414 0 0.914 0.207t0.797 0.504l5.586 5.578q0.289 0.305 0.289 0.711z"></path>
</svg>

<svg xmlns="http://www.w3.org/2000/svg" viewBox="0 0 15 14"><path d="M3.5 3.5q0-.414-.293-.707T2.5 2.5t-.707.293T1.5 3.5t.293.707.707.293.707-.293T3.5 3.5zM11.836 8q0 .414-.29.703L7.71 12.547q-.303.29-.71.29-.413 0-.702-.29L.71 6.953q-.296-.29-.503-.79T0 5.25V2q0-.406.297-.703T1 1h3.25q.414 0 .914.207t.797.504l5.59 5.58q.29.31.29.71zm3 0q0 .414-.29.703l-3.835 3.844q-.3.29-.71.29-.28 0-.46-.11t-.41-.352l3.67-3.672q.29-.29.29-.703 0-.406-.29-.71L7.21 1.71q-.296-.296-.796-.503T5.5 1h1.75q.414 0 .914.207t.797.504l5.59 5.58q.29.31.29.71z" /></svg>
